X: 1
T: Woo'd and Married and a'
M: 9/8
L: 1/8
R: slipjig
S: Aird, Vol. II (1782)
Z: AK/Fiddler's Companion
K: G
g | d2c BAB G3  | Bcd dgB d2g | edc BGB GAB | E2e ef^d e3 :|
g | def gag fed | Bcd dgB d2g | def gag fed | B2e ef^d e2 ||
g | def gag fed | Bcd dgB d2g | edc BAB GAB | E2e ef^d e3 |]
